app/data/cursorRotate.svg

<svg fill="none" height="24" viewBox="0 0 24 24" width="24" xmlns="http://www.w3.org/2000/svg"><g stroke-linecap="round" stroke-linejoin="round"><path d="m20 6v5m0 0h-4m4 0s-1.5-3-2.7964-3.94797c-1.2963-.94797-1.9672-1.44766-3.1621-1.77631-1.1949-.32864-2.4579-.36411-3.6711-.10309s-2.33711.81001-3.26684 1.59576c-.92972.78575-1.63497 1.78265-2.04992 2.89766m-1.05364 8.33395v-5m0 0h4m-4 0s1.59273 2.8959 2.79636 3.948c1.20364 1.052 1.96722 1.4476 3.16212 1.7763 1.19492.3286 2.45792.3641 3.67112.1031s2.3371-.81 3.2668-1.5958c.9298-.7857 1.635-1.7826 2.05-2.8977" stroke="#000" stroke-width="6"/><path d="m20 6v5m0 0h-4m4 0s-1.5-3-2.7964-3.94797c-1.2963-.94797-1.9672-1.44766-3.1621-1.77631-1.1949-.32864-2.4579-.36411-3.6711-.10309s-2.33711.81001-3.26684 1.59576c-.92972.78575-1.63497 1.78265-2.04992 2.89766m-1.05364 8.33395v-5m0 0h4m-4 0s1.59273 2.8959 2.79636 3.948c1.20364 1.052 1.96722 1.4476 3.16212 1.7763 1.19492.3286 2.45792.3641 3.67112.1031s2.3371-.81 3.2668-1.5958c.9298-.7857 1.635-1.7826 2.05-2.8977" stroke="#fff" stroke-width="2"/></g></svg>

<svg width="24" height="24" viewBox="0 0 24 24" fill="none" xmlns="http://www.w3.org/2000/svg">
<path d="M20 6V11M20 11H16M20 11C20 11 18.5 8 17.2036 7.05203C15.9073 6.10406 15.2364 5.60437 14.0415 5.27572C12.8466 4.94708 11.5836 4.91161 10.3704 5.17263C9.1572 5.43365 8.03329 5.98264 7.10356 6.76839C6.17384 7.55414 5.46859 8.55104 5.05364 9.66605M4 18V13M4 13H8M4 13C4 13 5.59273 15.8959 6.79636 16.948C8 18 8.76358 18.3956 9.95848 18.7243C11.1534 19.0529 12.4164 19.0884 13.6296 18.8274C14.8428 18.5664 15.9667 18.0174 16.8964 17.2316C17.8262 16.4459 18.5314 15.449 18.9464 14.3339" stroke="black" stroke-width="6" stroke-linecap="round" stroke-linejoin="round"/>
<path d="M20 6V11M20 11H16M20 11C20 11 18.5 8 17.2036 7.05203C15.9073 6.10406 15.2364 5.60437 14.0415 5.27572C12.8466 4.94708 11.5836 4.91161 10.3704 5.17263C9.1572 5.43365 8.03329 5.98264 7.10356 6.76839C6.17384 7.55414 5.46859 8.55104 5.05364 9.66605M4 18V13M4 13H8M4 13C4 13 5.59273 15.8959 6.79636 16.948C8 18 8.76358 18.3956 9.95848 18.7243C11.1534 19.0529 12.4164 19.0884 13.6296 18.8274C14.8428 18.5664 15.9667 18.0174 16.8964 17.2316C17.8262 16.4459 18.5314 15.449 18.9464 14.3339" stroke="white" stroke-width="2" stroke-linecap="round" stroke-linejoin="round"/>
</svg>
